X: 1
T: Tie The Ribbons
R: reel
M: 4/4
L: 1/8
K: Edor
BEED GBAG|FDAD BDAD|GBEF GABc|d2 df  e2 dc:|2d2 df ~e3f||
g2 gf gbag|fddc dfaf|g2 ef gbaf|gfed Beef|
g2 gf gbag|fddc dfaf|bgaf gfed|Bgfg ~e2dc||


